images_sukapura_svg/cmd/lc_insertfieldctrl.svg

<svg viewBox="0 0 24 24" xmlns="http://www.w3.org/2000/svg" xmlns:xlink="http://www.w3.org/1999/xlink"><linearGradient id="a" gradientUnits="userSpaceOnUse" x1="15" x2="17.0000008" y1="7" y2="4.9999992"><stop offset="0" stop-color="#fff"/><stop offset=".77967989" stop-color="#f1f1f1"/><stop offset="1" stop-color="#d5d5d5"/></linearGradient><radialGradient id="b" cx="17" cy="6.555555" gradientTransform="matrix(1.4285714 -.00000006 .00000006 1.4285714 -7.285714 -4.365078)" gradientUnits="userSpaceOnUse" r="7"><stop offset="0" stop-color="#d7d7d7"/><stop offset=".29999998" stop-color="#f7f7f7"/><stop offset="1" stop-color="#fff"/></radialGradient><path d="m5 3v18h14v-14.2705905l-4-3.7294095z" fill="url(#b)"/><path d="m5 2c-.554 0-1 .446-1 1v18c0 .554.446 1 1 1h14c.554 0 1-.446 1-1v-10.109375-3.6412209-.2079239c0-.4506799.09887-.4265951-.604637-1.0675892l-3.307389-3.2370335c-.709525-.7368575-.711223-.7368575-1.094804-.7368575h-.331557-.661613zm0 1h9v4c0 .554.446 1 1 1h4v13h-14z" fill="#98989d"/><path d="m15 7h4l-4-4z" fill="#fff" fill-rule="evenodd"/><path d="m15 3 4 4h-4z" fill="url(#a)"/><g fill="#0a84ff"><rect height="2" ry=".961864" width="8" x="8" y="13"/><path d="m8 10c-1.104522 0-2 .895478-2 2v4c0 1.104597.8954308 2 2 2h1v-1h-1c-.5522842 0-1-.447701-1-1v-.28125-3.71875c0-.552299.4267669-1 1-1h1v-1z"/><path d="m16 10c1.104522 0 2 .895478 2 2v4c0 1.104597-.895431 2-2 2h-1v-1h1c.552284 0 1-.447701 1-1v-.28125-3.71875c0-.552299-.426767-1-1-1h-1v-1z"/></g></svg>

<?xml version="1.0" encoding="UTF-8" standalone="no"?>
<svg
   xmlns:dc="http://purl.org/dc/elements/1.1/"
   xmlns:cc="http://creativecommons.org/ns#"
   xmlns:rdf="http://www.w3.org/1999/02/22-rdf-syntax-ns#"
   xmlns:svg="http://www.w3.org/2000/svg"
   xmlns="http://www.w3.org/2000/svg"
   xmlns:xlink="http://www.w3.org/1999/xlink"
   xmlns:sodipodi="http://sodipodi.sourceforge.net/DTD/sodipodi-0.dtd"
   xmlns:inkscape="http://www.inkscape.org/namespaces/inkscape"
   viewBox="0 0 24 24"
   version="1.1"
   id="svg8"
   sodipodi:docname="lc_insertfieldctrl.svg"
   inkscape:version="0.92.3 (unknown)"
   inkscape:export-filename="/home/rizmut/Dokumen/Rizmut/Github/libreoffice-style-colibrex/images_colibrex/cmd/lc_insertfieldctrl.png"
   inkscape:export-xdpi="96"
   inkscape:export-ydpi="96">
  <metadata
     id="metadata14">
    <rdf:RDF>
      <cc:Work
         rdf:about="">
        <dc:format>image/svg+xml</dc:format>
        <dc:type
           rdf:resource="http://purl.org/dc/dcmitype/StillImage" />
        <dc:title></dc:title>
      </cc:Work>
    </rdf:RDF>
  </metadata>
  <defs
     id="defs12">
    <linearGradient
       inkscape:collect="always"
       xlink:href="#linearGradient882"
       id="linearGradient884"
       x1="18"
       y1="11"
       x2="19.428572"
       y2="9.5714283"
       gradientUnits="userSpaceOnUse"
       gradientTransform="matrix(1.4,0,0,1.4,-10.2,-8.4)" />
    <linearGradient
       inkscape:collect="always"
       id="linearGradient882">
      <stop
         style="stop-color:#ffffff;stop-opacity:1;"
         offset="0"
         id="stop878" />
      <stop
         id="stop886"
         offset="0.77967989"
         style="stop-color:#f1f1f1;stop-opacity:1" />
      <stop
         style="stop-color:#d5d5d5;stop-opacity:1"
         offset="1"
         id="stop880" />
    </linearGradient>
    <linearGradient
       inkscape:collect="always"
       id="linearGradient870">
      <stop
         style="stop-color:#d7d7d7;stop-opacity:1"
         offset="0"
         id="stop866" />
      <stop
         id="stop874"
         offset="0.29999998"
         style="stop-color:#f7f7f7;stop-opacity:1" />
      <stop
         style="stop-color:#ffffff;stop-opacity:1"
         offset="1"
         id="stop868" />
    </linearGradient>
    <radialGradient
       inkscape:collect="always"
       xlink:href="#linearGradient870"
       id="radialGradient857"
       cx="17"
       cy="6.5555553"
       fx="17"
       fy="6.5555553"
       r="7"
       gradientTransform="matrix(1.4285714,-6.3025743e-8,6.3025743e-8,1.4285714,-7.2857139,-4.365078)"
       gradientUnits="userSpaceOnUse" />
  </defs>
  <sodipodi:namedview
     pagecolor="#ffffff"
     bordercolor="#666666"
     borderopacity="1"
     objecttolerance="10"
     gridtolerance="10"
     guidetolerance="10"
     inkscape:pageopacity="0"
     inkscape:pageshadow="2"
     inkscape:window-width="1366"
     inkscape:window-height="706"
     id="namedview10"
     showgrid="true"
     inkscape:zoom="6.9532165"
     inkscape:cx="-0.50574399"
     inkscape:cy="-7.8027816"
     inkscape:window-x="0"
     inkscape:window-y="0"
     inkscape:window-maximized="1"
     inkscape:current-layer="svg8">
    <inkscape:grid
       type="xygrid"
       id="grid821" />
  </sodipodi:namedview>
  <g
     id="g863">
    <path
       style="fill-opacity:1;fill:url(#radialGradient857)"
       id="path2"
       d="m5 3v18h14v-14.2705905l-4-3.7294095z"
       fill="#fff" />
    <path
       style="fill:#98989d;fill-opacity:1"
       id="path4"
       d="m5 2c-.554 0-1 .446-1 1v18c0 .554.446 1 1 1h14c.554 0 1-.446 1-1v-10.109375-3.6412209-.2079239c0-.4506799.09887-.4265951-.604637-1.0675892l-3.307389-3.2370335c-.709525-.7368575-.711223-.7368575-1.094804-.7368575h-.331557-.661613zm0 1h9v4c0 .554.446 1 1 1h4v13h-14z"
       fill="#808080" />
    <path
       id="path6"
       d="m15 7h4l-4-4z"
       fill-rule="evenodd"
       fill="#fff" />
    <path
       sodipodi:nodetypes="cccc"
       style="fill:url(#linearGradient884);fill-opacity:1;stroke:none;stroke-width:1.39999998px;stroke-linecap:butt;stroke-linejoin:miter;stroke-opacity:1"
       d="m 15,3 4,4 h -4 z"
       id="path876"
       inkscape:connector-curvature="0" />
  </g>
  <g
     style="fill:#d65532"
     id="g14">
    <rect
       height="2"
       ry="0.96186399"
       width="8"
       x="8"
       y="13"
       id="rect8"
       style="fill:#0a84ff;fill-opacity:1" />
    <path
       inkscape:connector-curvature="0"
       d="m 8,10 c -1.104522,0 -2,0.895478 -2,2 v 4 c 0,1.104597 0.8954308,2 2,2 H 9 V 17 H 8 C 7.4477158,17 7,16.552299 7,16 V 15.71875 12 c 0,-0.552299 0.4267669,-1 1,-1 h 1 v -1 z"
       id="path10"
       style="fill:#0a84ff;fill-opacity:1" />
    <path
       inkscape:connector-curvature="0"
       d="m 16,10 c 1.104522,0 2,0.895478 2,2 v 4 c 0,1.104597 -0.895431,2 -2,2 h -1 v -1 h 1 c 0.552284,0 1,-0.447701 1,-1 V 15.71875 12 c 0,-0.552299 -0.426767,-1 -1,-1 h -1 v -1 z"
       id="path12"
       style="fill:#0a84ff;fill-opacity:1" />
  </g>
</svg>
